icons/mobile/24/svg/import-data-24.svg

<svg width="24" height="24" viewBox="0 0 24 24" fill="none" xmlns="http://www.w3.org/2000/svg">
<path d="M9.58887 2.39789C12.8099 1.87189 16.1432 1.86906 19.3682 2.39106C20.8931 2.63713 22 3.93698 22 5.47992V18.5239C22 20.0638 20.9111 21.3579 19.4111 21.603C17.7931 21.867 16.14 22.0004 14.5 22.0004C12.875 22.0004 11.2368 21.8698 9.63184 21.6098C8.10694 21.3637 7.00001 20.0639 7 18.5209V16.0004H8.75V18.5209C8.75001 19.2009 9.23814 19.7733 9.91113 19.8823C12.9511 20.3742 16.092 20.3704 19.1289 19.8745C19.7689 19.7705 20.25 19.1909 20.25 18.5239V5.4809C20.25 4.80091 19.7619 4.22857 19.0889 4.11957C17.5759 3.87459 16.0319 3.75043 14.5 3.75043C12.9541 3.75043 11.396 3.87645 9.87109 4.12543C9.23109 4.22943 8.75 4.80999 8.75 5.47699V7.99945H7V5.47699C7 3.93704 8.08893 2.64294 9.58887 2.39789Z" fill="black"/>
<path d="M10.999 8.75043C10.999 8.08243 11.8073 7.74816 12.2793 8.22016L15.5283 11.4692C15.821 11.7621 15.821 12.2368 15.5283 12.5297L12.2803 15.7778C11.8083 16.2508 11 15.9155 11 15.2475L10.999 15.2465V12.8754H2.875C2.39216 12.8754 2.00026 12.4832 2 12.0004C2 11.5174 2.392 11.1254 2.875 11.1254H10.999V8.75043Z" fill="black"/>
</svg>

<!-- This Source Code Form is subject to the terms of the Mozilla Public
   - License, v. 2.0. If a copy of the MPL was not distributed with this
   - file, You can obtain one at http://mozilla.org/MPL/2.0/. -->
<svg xmlns="http://www.w3.org/2000/svg" width="24" height="24" fill="none" viewBox="0 0 24 24">
    <path fill="#000" d="M9.589 2.398a30.6 30.6 0 0 1 9.78-.007A3.12 3.12 0 0 1 22 5.48v13.044c0 1.54-1.089 2.834-2.589 3.079a30.6 30.6 0 0 1-9.78.007A3.12 3.12 0 0 1 7 18.52V16h1.75v2.52c0 .68.488 1.253 1.161 1.362 3.04.492 6.181.488 9.218-.008.64-.104 1.121-.683 1.121-1.35V5.48c0-.68-.488-1.252-1.161-1.361a28.8 28.8 0 0 0-9.218.005c-.64.104-1.121.685-1.121 1.352v2.522H7V5.477c0-1.54 1.089-2.834 2.589-3.08" />
    <path fill="#000" d="M10.999 8.75a.75.75 0 0 1 1.28-.53l3.25 3.25a.75.75 0 0 1 0 1.06l-3.249 3.248a.75.75 0 0 1-1.28-.53l-.001-.002v-2.37H2.875a.876.876 0 0 1 0-1.75h8.124z" />
</svg>
